packages/core/assets/Icons/reply.svg

<svg viewBox="0 0 20 20" fill="none" xmlns="http://www.w3.org/2000/svg">
<path d="M5.68742 9.99998L8.10409 12.4166C8.27075 12.5833 8.35061 12.7778 8.34367 13C8.33672 13.2222 8.24992 13.4166 8.08325 13.5833C7.91659 13.7361 7.72214 13.816 7.49992 13.8229C7.2777 13.8298 7.08325 13.75 6.91659 13.5833L3.08325 9.74998C2.91659 9.58331 2.83325 9.38887 2.83325 9.16665C2.83325 8.94442 2.91659 8.74998 3.08325 8.58331L6.91659 4.74998C7.06936 4.5972 7.26034 4.52081 7.4895 4.52081C7.71867 4.52081 7.91659 4.5972 8.08325 4.74998C8.24992 4.91665 8.33325 5.11456 8.33325 5.34373C8.33325 5.5729 8.24992 5.77081 8.08325 5.93748L5.68742 8.33331H13.3333C14.486 8.33331 15.4687 8.73956 16.2812 9.55206C17.0937 10.3646 17.4999 11.3472 17.4999 12.5V15C17.4999 15.2361 17.4201 15.434 17.2603 15.5937C17.1006 15.7535 16.9027 15.8333 16.6666 15.8333C16.4305 15.8333 16.2326 15.7535 16.0728 15.5937C15.9131 15.434 15.8333 15.2361 15.8333 15V12.5C15.8333 11.8055 15.5902 11.2153 15.1041 10.7291C14.618 10.243 14.0277 9.99998 13.3333 9.99998H5.68742Z" fill="currentColor"/>
</svg>

<svg xmlns="http://www.w3.org/2000/svg" width="20" height="20" fill="none" viewBox="0 0 20 20">
  <path fill="#201F1F" d="m5.687 10 2.417 2.417a.764.764 0 0 1 .24.583.839.839 0 0 1-.26.583.879.879 0 0 1-.584.24.763.763 0 0 1-.583-.24L3.083 9.75a.8.8 0 0 1-.25-.583.8.8 0 0 1 .25-.584L6.917 4.75a.777.777 0 0 1 .572-.23c.23 0 .428.077.594.23.167.167.25.365.25.594a.807.807 0 0 1-.25.593L5.687 8.333h7.646c1.153 0 2.136.407 2.948 1.22.813.812 1.219 1.794 1.219 2.947V15c0 .236-.08.434-.24.594a.806.806 0 0 1-.593.24.806.806 0 0 1-.594-.24.806.806 0 0 1-.24-.594v-2.5c0-.694-.243-1.285-.729-1.77a2.41 2.41 0 0 0-1.77-.73H5.686Z"/>
</svg>
